X:174
M:4/4
L:1/8
K:D
| E2FE E2FA | B2cA Bcd2 | DEDF E2FA | B2AF BAFD | 
E2FE E2FA | B2cA Bcdf | edcB A2Bc | dBAF FEE2 | 
| e2ec e2ce | e2fe edBc | d2fd d2Bc | dfed cBA2 | 

